svgs/thunder.svg

<svg width="192" height="192" viewBox="0 0 192 192" fill="none" xmlns="http://www.w3.org/2000/svg">
<path d="M155.02 21.3838L123.632 35.4252C122.964 35.7241 122.387 36.1989 121.985 36.8111C115.08 47.3409 113.809 58.8798 126.046 69.3484L156.267 22.8415C156.81 22.0057 155.93 20.9768 155.02 21.3838Z" stroke="black" stroke-width="10" stroke-linejoin="round"/>
<path d="M36.0933 170.616L67.4814 156.575C68.1497 156.276 68.7271 155.801 69.1285 155.189C76.034 144.659 77.3044 133.12 65.0673 122.652L34.8464 169.159C34.3033 169.994 35.1835 171.023 36.0933 170.616Z" stroke="black" stroke-width="10" stroke-linejoin="round"/>
<path d="M66.8383 60.4281L112.817 39.1953C102.107 49.5242 99.6196 55.589 105.358 68.5909L128.534 117.11C130.937 122.139 128.764 128.162 123.703 130.499L77.8145 151.69C88.9105 140.517 91.0123 135.296 86.4218 126.252L61.9653 73.7279C59.6289 68.7101 61.8131 62.7487 66.8383 60.4281Z" stroke="black" stroke-width="10" stroke-linejoin="round"/>
</svg>

<svg width="192" height="192" viewBox="0 0 192 192" fill="none" xmlns="http://www.w3.org/2000/svg"><path d="m155.02 21.384-31.388 14.041a3.835 3.835 0 0 0-1.647 1.386c-6.905 10.53-8.176 22.069 4.061 32.537l30.221-46.507c.543-.835-.337-1.864-1.247-1.457ZM36.093 170.616l31.388-14.041a3.832 3.832 0 0 0 1.648-1.386c6.905-10.53 8.175-22.069-4.062-32.537l-30.22 46.507c-.544.835.337 1.864 1.246 1.457Z" stroke="#000" stroke-width="10" stroke-linejoin="round"/><path d="m66.838 60.428 45.979-21.233c-10.71 10.33-13.197 16.394-7.459 29.396l23.176 48.519c2.403 5.029.23 11.052-4.831 13.389L77.814 151.69c11.097-11.173 13.198-16.394 8.608-25.438L61.965 73.728c-2.336-5.018-.152-10.98 4.873-13.3Z" stroke="#000" stroke-width="10" stroke-linejoin="round"/></svg>
